X:1
T:Himno Nacional Boliviano
T:Himno Nacional de Bolivia
T:Leopoldo Benedetta Vincenti
T:José Ignacio de Sanjinés
C:k
Z:k
L:1/8
M:4/4
K:C
V:1 treble nm="Piano" snm="Pno."
V:1
 e7/2 d/ c>B A>G | F2 _A2 ^c4 | c7/2 A/ G>c B>d | c2 (3ccc c2 c2 | c2 (3ccc c2 G>e | %5
w: ||||* * * * * Bo- li-|
 e2 d>c c2 B>A | A4 G2 F>E | D>E F>G A>B c>d | e4 c2 G>e | e2 d>c c2 B>A | A4 G2 (3G^FE | %11
w: via- nos: el ha- do pro-|pi- cio co- ro-|nó nu- es- tros vo- tos y an-|he- los. Es ya|li- bre, ya li- bre'es- te|sue- lo, ya _ ce-|
 D>G B>d e>d c>A | GG/G/ GG G2 G>G |[K:Eb] G2 G>G GF G>A | B4 G2 A>G | FE F>G AB d>c | %16
w: só _ su ser- vil con- di- ci-|ón. * * * * * Al es-|tru- en- do mar- cial que ayer|fue- ra y al|cla- mor de la gue- rra ho- rro-|
 B3 A G2 G>G |[K:C] G>A G>A G>A G>A | G3 F E2 G>G | A2 G>c B>A (3AGF | E2 (3ccc c2 G>G | %21
w: ro- * so, si- gu-|en hoy, en con- tras- te ar- mo-|ni- o- so, dul- ces|him- nos de paz _ y de u-|nión. * * * * Si- gu-|
 G>A G>A G>A G>A | G3 A/B/ cA F>A | A2 G>c B>A (3AGF | Ec/c/ cc cc _e>_d |[K:Ab] c4 A>e e>d | %26
w: en hoy, en con- tras- te ar- mo-|ni- o- * so, _ dul- ces|him- nos de paz _ y de u-|nión. * * * * * * De la|Pa- tria, el al- to|
 c4 A2 B>A | G>F G>A B>c d>=d | e4 c2 e>d | c3 B A>c (3cd=d | e4 c2 c>=d ||[K:C] e2 c>c d2 B>B | %32
w: nom- bre, en glo-|rio- so es- plen dor _ con- ser-|ve- mos. Y'en sus|a- * ras de nue- vo ju-|re- mos ¡Mo- rir|an- tes que'es cla- vos vi-|
 cCDE FD c>d | e2 c>c d2 B>B | cCDE FD c>d | e2 c>c d2 B>B | c4 c2 c2 | c4 e4 | c6 z2 |] %39
w: vir! * * * * * ¡Mo- rir|an- tes que'es- cla- vos vi-|vir! * * * * * ¡Mo- rir|an- tes que'es- cla- vos vi-|vir! * *|||

